;FLAVOR:Marlin
;TIME:3640
;Filament used: 1.55783m
;Layer height: 0.2
;MINX:22.198
;MINY:22.195
;MINZ:0.3
;MAXX:77.8
;MAXY:77.803
;MAXZ:39.9
;TARGET_MACHINE.NAME:Unknown
;Generated with Cura_SteamEngine 5.12.0
M104 S200
M105
M109 S200
G28 ;Home
G1 Z15.0 F6000 ;Move the platform down 15mm
;Prime the extruder
G92 E0
G1 F200 E3
G92 E0
M82 ;absolute extrusion mode
G92 E0
G92 E0
G1 F1500 E-6.5
;LAYER_COUNT:199
;LAYER:0
M107
G0 F3600 X30.506 Y30.177 Z0.3
;TYPE:SKIRT
G1 F1500 E0
G1 F1800 X31.319 Y29.403 E0.02112
G1 X32.598 Y28.322 E0.05262
G1 X33.671 Y27.497 E0.07808
G1 X34.824 Y26.71 E0.10434
G1 X35.772 Y26.12 E0.12534
G1 X36.732 Y25.571 E0.14614
G1 X37.688 Y25.078 E0.16637
G1 X38.726 Y24.594 E0.18792
G1 X39.763 Y24.153 E0.20912
G1 X41.007 Y23.689 E0.23409
G1 X42.616 Y23.197 E0.26574
G1 X44.005 Y22.857 E0.29264
G1 X45.423 Y22.577 E0.31983
G1 X46.737 Y22.394 E0.34478
G1 X47.809 Y22.291 E0.36504
G1 X48.941 Y22.22 E0.38638
G1 X50.407 Y22.195 E0.41396
G1 X51.686 Y22.25 E0.43804
G1 X52.796 Y22.335 E0.45898
G1 X54.464 Y22.56 E0.49064
G1 X55.75 Y22.795 E0.51523
G1 X57.079 Y23.115 E0.54094
G1 X58.244 Y23.449 E0.56374
G1 X59.443 Y23.847 E0.5875
G1 X61.144 Y24.526 E0.62196
G1 X62.251 Y25.042 E0.64493
G1 X63.299 Y25.583 E0.66712
G1 X64.18 Y26.079 E0.68613
G1 X65.693 Y27.056 E0.72001
G1 X66.603 Y27.7 E0.74098
G1 X67.657 Y28.522 E0.76613
G1 X68.96 Y29.664 E0.79872
G1 X69.917 Y30.605 E0.82396
G1 X70.761 Y31.503 E0.84715
G1 X71.767 Y32.709 E0.87669
G1 X72.566 Y33.758 E0.90149
G1 X73.383 Y34.963 E0.92888
G1 X74.072 Y36.081 E0.95358
G1 X74.744 Y37.335 E0.98034
G1 X75.242 Y38.355 E1.00169
G1 X75.784 Y39.591 E1.02708
G1 X76.274 Y40.898 E1.05334
G1 X76.771 Y42.501 E1.08491
G1 X77.05 Y43.561 E1.10552
G1 X77.283 Y44.611 E1.12576
G1 X77.55 Y46.325 E1.15839
G1 X77.702 Y47.68 E1.18403
G1 X77.784 Y49.07 E1.21023
G1 X77.8 Y50.205 E1.23158
G1 X77.765 Y51.266 E1.25155
G1 X77.697 Y52.418 E1.27325
G1 X77.537 Y53.847 E1.3003
G1 X77.335 Y55.091 E1.32401
G1 X76.967 Y56.749 E1.35596
G1 X76.693 Y57.774 E1.37591
G1 X76.267 Y59.109 E1.40227
G1 X75.627 Y60.778 E1.4359
G1 X75.097 Y61.952 E1.46013
G1 X74.606 Y62.938 E1.48085
G1 X74.096 Y63.876 E1.50093
G1 X73.4 Y65.022 E1.52615
G1 X72.376 Y66.509 E1.56011
G1 X71.643 Y67.45 E1.58255
G1 X70.833 Y68.416 E1.60627
G1 X70.12 Y69.198 E1.62617
G1 X68.901 Y70.385 E1.65818
G1 X67.768 Y71.383 E1.68658
G1 X66.51 Y72.37 E1.71666
G1 X65.4 Y73.14 E1.74207
G1 X64.212 Y73.898 E1.76858
G1 X62.912 Y74.627 E1.79661
G1 X61.533 Y75.294 E1.82543
G1 X60.504 Y75.738 E1.84651
G1 X59.231 Y76.229 E1.87217
G1 X57.914 Y76.652 E1.89819
G1 X56.83 Y76.95 E1.91934
G1 X55.62 Y77.232 E1.94271
G1 X54.113 Y77.493 E1.97148
G1 X53.095 Y77.627 E1.99079
G1 X51.959 Y77.725 E2.01224
G1 X50.795 Y77.788 E2.03417
G1 X49.355 Y77.803 E2.06126
G1 X48.328 Y77.757 E2.0806
G1 X46.554 Y77.594 E2.11411
G1 X45.224 Y77.396 E2.1394
G1 X43.644 Y77.065 E2.16977
G1 X42.24 Y76.706 E2.19703
G1 X41.092 Y76.345 E2.21966
G1 X39.241 Y75.644 E2.2569
G1 X38.04 Y75.101 E2.28169
G1 X36.743 Y74.444 E2.30904
G1 X35.37 Y73.65 E2.33887
G1 X34.144 Y72.838 E2.36653
G1 X33.215 Y72.163 E2.38813
G1 X32.316 Y71.449 E2.40973
G1 X31.467 Y70.719 E2.43079
G1 X30.697 Y70.002 E2.45058
G1 X29.877 Y69.178 E2.47245
G1 X29.131 Y68.363 E2.49323
G1 X28.188 Y67.239 E2.52083
G1 X27.42 Y66.211 E2.54497
G1 X26.608 Y65.035 E2.57185
G1 X25.887 Y63.848 E2.59798
G1 X24.959 Y62.076 E2.6356
G1 X24.33 Y60.691 E2.66422
G1 X23.782 Y59.261 E2.69302
G1 X23.203 Y57.428 E2.72918
G1 X22.899 Y56.212 E2.75276
G1 X22.591 Y54.688 E2.78201
G1 X22.406 Y53.39 E2.80667
G1 X22.299 Y52.303 E2.82721
G1 X22.21 Y50.877 E2.85409
G1 X22.198 Y49.504 E2.87992
G1 X22.294 Y47.602 E2.91574
G1 X22.408 Y46.549 E2.93566
G1 X22.623 Y45.128 E2.9627
G1 X22.837 Y44.032 E2.9837
G1 X23.246 Y42.439 E3.01464
G1 X23.62 Y41.205 E3.0389
G1 X24.131 Y39.812 E3.06681
G1 X24.5 Y38.919 E3.08498
G1 X25.019 Y37.792 E3.10832
G1 X25.508 Y36.831 E3.1286
G1 X26.364 Y35.373 E3.16041
G1 X26.976 Y34.422 E3.18168
G1 X27.599 Y33.537 E3.20204
G1 X28.295 Y32.632 E3.22351
G1 X28.988 Y31.8 E3.24388
G1 X29.738 Y30.965 E3.265
G1 X30.506 Y30.177 E3.28569
G0 F3600 X30.782 Y30.467
G1 F1800 X31.595 Y29.693 E3.30681
G1 X32.842 Y28.639 E3.33752
G1 X33.915 Y27.814 E3.36298
G1 X35.035 Y27.05 E3.38848
G1 X35.971 Y26.467 E3.40923
G1 X36.915 Y25.927 E3.42968
G1 X37.871 Y25.434 E3.44992
G1 X38.882 Y24.962 E3.47091
G1 X39.903 Y24.528 E3.49177
G1 X41.124 Y24.072 E3.51629
G1 X42.733 Y23.58 E3.54794
G1 X44.083 Y23.249 E3.57409
G1 X45.478 Y22.973 E3.60084
G1 X46.775 Y22.792 E3.62547
G1 X47.834 Y22.69 E3.64548
G1 X48.948 Y22.62 E3.66648
G1 X50.39 Y22.595 E3.69361
G1 X51.655 Y22.649 E3.71743
G1 X52.765 Y22.734 E3.73837
G1 X54.392 Y22.953 E3.76925
G1 X55.656 Y23.184 E3.79342
G1 X56.985 Y23.504 E3.81913
G1 X58.118 Y23.829 E3.8413
G1 X59.317 Y24.227 E3.86507
G1 X60.975 Y24.889 E3.89865
G1 X62.082 Y25.405 E3.92162
G1 X63.103 Y25.932 E3.94324
G1 X63.984 Y26.428 E3.96225
G1 X65.462 Y27.383 E3.99536
G1 X66.372 Y28.027 E4.01633
G1 X67.393 Y28.823 E4.04068
G1 X68.696 Y29.965 E4.07327
G1 X69.626 Y30.879 E4.0978
G1 X70.454 Y31.759 E4.12053
G1 X71.449 Y32.951 E4.14973
G1 X72.235 Y33.983 E4.17414
G1 X73.042 Y35.173 E4.20118
G1 X73.731 Y36.291 E4.22589
G1 X74.385 Y37.51 E4.25191
G1 X74.876 Y38.516 E4.27296
G1 X75.409 Y39.731 E4.29792
G1 X75.899 Y41.038 E4.32418
G1 X76.384 Y42.603 E4.355
G1 X76.659 Y43.648 E4.37532
G1 X76.892 Y44.698 E4.39556
G1 X77.152 Y46.37 E4.42738
G1 X77.304 Y47.725 E4.45303
G1 X77.384 Y49.076 E4.47849
G1 X77.4 Y50.192 E4.49948
G1 X77.366 Y51.242 E4.51925
G1 X77.299 Y52.374 E4.54058
G1 X77.142 Y53.783 E4.56725
G1 X76.944 Y55.004 E4.59051
G1 X76.58 Y56.646 E4.62215
G1 X76.312 Y57.652 E4.64173
G1 X75.886 Y58.987 E4.66809
G1 X75.262 Y60.613 E4.70085
G1 X74.732 Y61.787 E4.72508
G1 X74.254 Y62.747 E4.74526
G1 X73.754 Y63.668 E4.76497
G1 X73.058 Y64.814 E4.79019
G1 X72.06 Y66.263 E4.82329
G1 X71.327 Y67.204 E4.84572
G1 X70.537 Y68.146 E4.86885
G1 X69.824 Y68.928 E4.88876
G1 X68.636 Y70.085 E4.91995
G1 X67.521 Y71.068 E4.94791
G1 X66.282 Y72.041 E4.97754
G1 X65.185 Y72.803 E5.00267
G1 X64.016 Y73.549 E5.02875
G1 X62.716 Y74.278 E5.05679
G1 X61.375 Y74.927 E5.08481
G1 X60.36 Y75.365 E5.10561
G1 X59.109 Y75.848 E5.13083
G1 X57.808 Y76.266 E5.15654
G1 X56.739 Y76.56 E5.17739
G1 X55.529 Y76.842 E5.20076
G1 X54.061 Y77.096 E5.22879
G1 X53.061 Y77.228 E5.24776
G1 X51.925 Y77.326 E5.26921
G1 X50.791 Y77.388 E5.29057
G1 X49.373 Y77.403 E5.31725
G1 X48.346 Y77.357 E5.33659
G1 X46.613 Y77.198 E5.36932
G1 X45.283 Y77 E5.39462
G1 X43.743 Y76.677 E5.42421
G1 X42.36 Y76.324 E5.45106
G1 X41.212 Y75.963 E5.4737
G1 X39.406 Y75.279 E5.51003
G1 X38.221 Y74.744 E5.53448
G1 X36.924 Y74.087 E5.56183
G1 X35.591 Y73.317 E5.59079
G1 X34.379 Y72.514 E5.61814
G1 X33.464 Y71.85 E5.6394
G1 X32.577 Y71.146 E5.66071
G1 X31.74 Y70.426 E5.68147
G1 X30.97 Y69.709 E5.70127
G1 X30.172 Y68.908 E5.72253
G1 X29.437 Y68.106 E5.743
G1 X28.508 Y67 E5.77017
G1 X27.749 Y65.984 E5.79402
G1 X26.95 Y64.827 E5.82047
G1 X26.229 Y63.64 E5.8466
G1 X25.323 Y61.911 E5.88331
G1 X24.704 Y60.548 E5.91147
G1 X24.156 Y59.118 E5.94028
G1 X23.591 Y57.331 E5.97553
G1 X23.291 Y56.133 E5.99877
G1 X22.987 Y54.631 E6.02759
G1 X22.804 Y53.351 E6.05191
G1 X22.698 Y52.278 E6.0722
G1 X22.61 Y50.873 E6.09868
G1 X22.598 Y49.524 E6.12405
G1 X22.692 Y47.645 E6.15944
G1 X22.806 Y46.592 E6.17937
G1 X23.016 Y45.205 E6.20575
G1 X23.23 Y44.109 E6.22676
G1 X23.629 Y42.555 E6.25694
G1 X24.003 Y41.321 E6.28119
G1 X24.501 Y39.965 E6.30837
G1 X24.87 Y39.072 E6.32654
G1 X25.376 Y37.973 E6.3493
G1 X25.865 Y37.012 E6.36958
G1 X26.7 Y35.589 E6.40062
G1 X27.303 Y34.652 E6.42158
G1 X27.916 Y33.781 E6.44161
G1 X28.602 Y32.888 E6.4628
G1 X29.286 Y32.067 E6.4829
G1 X30.025 Y31.244 E6.5037
G1 X30.782 Y30.467 E6.52411
G0 F3600 X31.058 Y30.757
G1 F1800 X31.871 Y29.983 E6.54522
G1 X33.086 Y28.956 E6.57515
G1 X34.141 Y28.144 E6.60019
G1 X35.247 Y27.389 E6.62538
G1 X36.169 Y26.814 E6.64582
G1 X37.098 Y26.283 E6.66595
G1 X38.054 Y25.79 E6.68618
G1 X39.038 Y25.33 E6.70661
G1 X40.043 Y24.903 E6.72715
G1 X41.241 Y24.455 E6.75121
G1 X42.85 Y23.963 E6.78286
G1 X44.161 Y23.641 E6.80826
G1 X45.533 Y23.369 E6.83457
G1 X46.813 Y23.19 E6.85888
G1 X47.859 Y23.089 E6.87865
G1 X48.955 Y23.02 E6.8993
G1 X50.373 Y22.995 E6.92598
G1 X51.624 Y23.048 E6.94953
G1 X52.734 Y23.133 E6.97048
G1 X54.32 Y23.346 E7.00058
G1 X55.562 Y23.573 E7.02433
G1 X56.891 Y23.893 E7.05004
G1 X57.992 Y24.209 E7.07159
G1 X59.191 Y24.607 E7.09535
G1 X60.806 Y25.252 E7.12806
G1 X61.913 Y25.768 E7.15104
G1 X62.907 Y26.281 E7.17208
G1 X63.788 Y26.777 E7.1911
G1 X65.231 Y27.71 E7.22342
G1 X66.126 Y28.343 E7.24404
G1 X67.129 Y29.124 E7.26795
G1 X68.432 Y30.266 E7.30054
G1 X69.335 Y31.153 E7.32435
G1 X70.147 Y32.015 E7.34663
G1 X71.131 Y33.194 E7.37552
G1 X71.904 Y34.208 E7.3995
G1 X72.701 Y35.383 E7.42621
G1 X73.39 Y36.501 E7.45091
G1 X74.026 Y37.686 E7.47621
G1 X74.51 Y38.677 E7.49695
G1 X75.034 Y39.871 E7.52148
G1 X75.524 Y41.178 E7.54774
G1 X75.997 Y42.705 E7.57781
G1 X76.268 Y43.735 E7.59784
G1 X76.501 Y44.785 E7.61807
G1 X76.754 Y46.415 E7.6491
G1 X76.906 Y47.77 E7.67475
G1 X76.984 Y49.082 E7.69947
G1 X77 Y50.179 E7.72011
G1 X76.967 Y51.218 E7.73967
G1 X76.901 Y52.33 E7.76062
G1 X76.747 Y53.719 E7.78691
G1 X76.549 Y54.94 E7.81018
G1 X76.193 Y56.543 E7.84106
G1 X75.925 Y57.549 E7.86065
G1 X75.513 Y58.844 E7.88621
G1 X74.897 Y60.449 E7.91855
G1 X74.374 Y61.609 E7.94248
G1 X73.903 Y62.556 E7.96238
G1 X73.412 Y63.46 E7.98173
G1 X72.716 Y64.606 E8.00695
G1 X71.744 Y66.017 E8.03918
G1 X71.02 Y66.947 E8.06135
G1 X70.241 Y67.876 E8.08416
G1 X69.528 Y68.658 E8.10406
G1 X68.371 Y69.785 E8.13444
G1 X67.274 Y70.753 E8.16196
G1 X66.035 Y71.726 E8.1916
G1 X64.97 Y72.466 E8.21599
G1 X63.82 Y73.2 E8.24166
G1 X62.52 Y73.929 E8.26969
G1 X61.217 Y74.56 E8.29693
G1 X60.216 Y74.992 E8.31743
G1 X58.987 Y75.467 E8.34222
G1 X57.702 Y75.88 E8.36761
G1 X56.648 Y76.17 E8.38817
G1 X55.438 Y76.452 E8.41154
G1 X54.009 Y76.699 E8.43882
G1 X53.027 Y76.829 E8.45745
G1 X51.891 Y76.927 E8.4789
G1 X50.787 Y76.988 E8.4997
G1 X49.391 Y77.003 E8.52596
G1 X48.364 Y76.957 E8.5453
G1 X46.672 Y76.802 E8.57726
G1 X45.365 Y76.608 E8.60211
G1 X43.842 Y76.289 E8.63138
G1 X42.48 Y75.942 E8.65782
G1 X41.332 Y75.581 E8.68046
G1 X39.548 Y74.905 E8.71635
G1 X38.402 Y74.387 E8.74
G1 X37.105 Y73.73 E8.76735
G1 X35.812 Y72.984 E8.79543
G1 X34.614 Y72.19 E8.82247
G1 X33.713 Y71.537 E8.8434
G1 X32.838 Y70.843 E8.86441
G1 X32.013 Y70.133 E8.88488
G1 X31.243 Y69.416 E8.90467
G1 X30.467 Y68.638 E8.92534
G1 X29.743 Y67.849 E8.94548
G1 X28.828 Y66.76 E8.97224
G1 X28.078 Y65.757 E8.9958
G1 X27.292 Y64.619 E9.02181
G1 X26.571 Y63.432 E9.04794
G1 X25.687 Y61.746 E9.08375
G1 X25.078 Y60.405 E9.11145
G1 X24.53 Y58.975 E9.14026
G1 X23.979 Y57.234 E9.17461
G1 X23.683 Y56.053 E9.19751
G1 X23.383 Y54.574 E9.2259
G1 X23.202 Y53.312 E9.24988
G1 X23.097 Y52.253 E9.2699
G1 X23.01 Y50.869 E9.29598
G1 X22.998 Y49.52 E9.32136
G1 X23.09 Y47.688 E9.35587
G1 X23.204 Y46.635 E9.37579
G1 X23.409 Y45.282 E9.40153
G1 X23.623 Y44.186 E9.42254
G1 X24.012 Y42.671 E9.45196
G1 X24.379 Y41.459 E9.47578
G1 X24.871 Y40.118 E9.50265
G1 X25.24 Y39.225 E9.52082
G1 X25.733 Y38.154 E9.543
G1 X26.222 Y37.193 E9.56328
G1 X27.036 Y35.805 E9.59355
G1 X27.63 Y34.882 E9.6142
G1 X28.233 Y34.025 E9.63391
G1 X28.909 Y33.144 E9.6548
G1 X29.583 Y32.334 E9.67462
G1 X30.312 Y31.523 E9.69513
G1 X31.058 Y30.757 E9.71525
G0 F3600 X31.334 Y31.047
G1 F1800 X32.147 Y30.273 E9.73636
G1 X33.33 Y29.273 E9.7655
G1 X34.385 Y28.461 E9.79054
G1 X35.459 Y27.728 E9.815
G1 X36.367 Y27.161 E9.83514
G1 X37.282 Y26.638 E9.85496
G1 X38.223 Y26.152 E9.87488
G1 X39.194 Y25.698 E9.89505
G1 X40.183 Y25.278 E9.91526
G1 X41.358 Y24.838 E9.93886
G1 X42.967 Y24.346 E9.97051
G1 X44.239 Y24.033 E9.99515
G1 X45.588 Y23.765 E10.02102
G1 X46.852 Y23.588 E10.04503
G1 X47.884 Y23.488 E10.06453
G1 X48.962 Y23.42 E10.08485
G1 X50.356 Y23.395 E10.11108
G1 X51.593 Y23.447 E10.13437
G1 X52.703 Y23.532 E10.15531
G1 X54.248 Y23.739 E10.18463
G1 X55.468 Y23.962 E10.20796
G1 X56.781 Y24.278 E10.23336
G1 X57.866 Y24.589 E10.25459
G1 X59.065 Y24.987 E10.27836
G1 X60.637 Y25.615 E10.3102
G1 X61.744 Y26.131 E10.33317
G1 X62.711 Y26.63 E10.35364
G1 X63.592 Y27.126 E10.37266
G1 X65 Y28.036 E10.4042
G1 X65.88 Y28.659 E10.42448
G1 X66.865 Y29.425 E10.44795
G1 X68.152 Y30.552 E10.48013
G1 X69.044 Y31.427 E10.50363
G1 X69.84 Y32.271 E10.52546
G1 X70.813 Y33.436 E10.55401
G1 X71.573 Y34.433 E10.57759
G1 X72.36 Y35.593 E10.60396
G1 X73.049 Y36.711 E10.62866
G1 X73.667 Y37.861 E10.65322
G1 X74.144 Y38.838 E10.67367
G1 X74.659 Y40.011 E10.69777
G1 X75.149 Y41.318 E10.72402
G1 X75.61 Y42.807 E10.75335
G1 X75.877 Y43.822 E10.77309
G1 X76.11 Y44.872 E10.79332
G1 X76.356 Y46.46 E10.82355
G1 X76.508 Y47.815 E10.84919
G1 X76.584 Y49.088 E10.87318
G1 X76.6 Y50.167 E10.89348
G1 X76.568 Y51.194 E10.91281
G1 X76.503 Y52.286 E10.93339
G1 X76.352 Y53.655 E10.9593
G1 X76.158 Y54.853 E10.98212
G1 X75.806 Y56.44 E11.0127
G1 X75.538 Y57.446 E11.03228
G1 X75.14 Y58.701 E11.05705
G1 X74.532 Y60.285 E11.08897
G1 X74.016 Y61.431 E11.11261
G1 X73.552 Y62.365 E11.13223
G1 X73.07 Y63.252 E11.15121
G1 X72.386 Y64.379 E11.17601
G1 X71.428 Y65.771 E11.2078
G1 X70.713 Y66.69 E11.2297
G1 X69.945 Y67.606 E11.25219
G1 X69.232 Y68.388 E11.27209
G1 X68.106 Y69.485 E11.30166
G1 X67.027 Y70.438 E11.32874
G1 X65.788 Y71.411 E11.35838
G1 X64.755 Y72.129 E11.38204
G1 X63.624 Y72.851 E11.40728
G1 X62.345 Y73.569 E11.43487
G1 X61.058 Y74.193 E11.46178
G1 X60.072 Y74.619 E11.48198
G1 X58.865 Y75.086 E11.50633
G1 X57.596 Y75.494 E11.5314
G1 X56.557 Y75.78 E11.55167
G1 X55.347 Y76.062 E11.57504
G1 X53.956 Y76.302 E11.60159
G1 X52.993 Y76.43 E11.61987
G1 X51.857 Y76.528 E11.64132
G1 X50.783 Y76.588 E11.66155
G1 X49.409 Y76.603 E11.6874
G1 X48.382 Y76.557 E11.70673
G1 X46.731 Y76.406 E11.73792
G1 X45.424 Y76.212 E11.76278
G1 X43.941 Y75.901 E11.79128
G1 X42.6 Y75.56 E11.81731
G1 X41.452 Y75.199 E11.83994
G1 X39.69 Y74.531 E11.87539
G1 X38.583 Y74.03 E11.89825
G1 X37.286 Y73.373 E11.92559
G1 X36.033 Y72.65 E11.95281
G1 X34.849 Y71.866 E11.97952
G1 X33.961 Y71.223 E12.00014
G1 X33.099 Y70.54 E12.02083
G1 X32.285 Y69.84 E12.04102
G1 X31.526 Y69.134 E12.06052
G1 X30.762 Y68.368 E12.08087
G1 X30.049 Y67.591 E12.10071
G1 X29.148 Y66.52 E12.12704
G1 X28.407 Y65.53 E12.1503
G1 X27.634 Y64.411 E12.17588
G1 X26.913 Y63.224 E12.20201
G1 X26.051 Y61.581 E12.23691
G1 X25.452 Y60.262 E12.26416
G1 X24.904 Y58.832 E12.29296
G1 X24.367 Y57.137 E12.32641
G1 X24.075 Y55.973 E12.34898
G1 X23.779 Y54.517 E12.37693
G1 X23.6 Y53.272 E12.40059
G1 X23.496 Y52.228 E12.42033
G1 X23.41 Y50.865 E12.44602
G1 X23.398 Y49.516 E12.47139
G1 X23.488 Y47.731 E12.50501
G1 X23.6 Y46.695 E12.52461
G1 X23.802 Y45.359 E12.55003
G1 X24.016 Y44.263 E12.57104
G1 X24.395 Y42.787 E12.5997
G1 X24.762 Y41.575 E12.62352
G1 X25.241 Y40.271 E12.64965
G1 X25.61 Y39.378 E12.66783
G1 X26.09 Y38.335 E12.68943
G1 X26.579 Y37.374 E12.70971
G1 X27.372 Y36.021 E12.73921
G1 X27.957 Y35.112 E12.75954
G1 X28.55 Y34.268 E12.77895
G1 X29.216 Y33.4 E12.79953
G1 X29.881 Y32.601 E12.81908
G1 X30.599 Y31.802 E12.83929
G1 X31.334 Y31.047 E12.85911
G0 F3600 X31.61 Y31.337
G1 F1800 X32.423 Y30.563 E12.88022
G1 X33.574 Y29.59 E12.90857
G1 X34.629 Y28.778 E12.93361
G1 X35.671 Y28.067 E12.95734
G1 X36.565 Y27.508 E12.97718
G1 X37.466 Y26.993 E12.9967
G1 X38.392 Y26.514 E13.01631
G1 X39.35 Y26.066 E13.0362
G1 X40.323 Y25.653 E13.05609
G1 X41.475 Y25.221 E13.07923
G1 X43.084 Y24.729 E13.11088
G1 X44.317 Y24.425 E13.13477
G1 X45.644 Y24.161 E13.16022
G1 X46.891 Y23.986 E13.1839
G1 X47.909 Y23.887 E13.20314
G1 X48.969 Y23.82 E13.22312
G1 X50.339 Y23.795 E13.2489
G1 X51.562 Y23.846 E13.27192
G1 X52.672 Y23.931 E13.29286
G1 X54.176 Y24.132 E13.32141
G1 X55.374 Y24.351 E13.34431
G1 X56.687 Y24.667 E13.36972
G1 X57.74 Y24.969 E13.39032
G1 X58.917 Y25.359 E13.41365
G1 X60.468 Y25.978 E13.44506
G1 X61.575 Y26.494 E13.46804
G1 X62.515 Y26.979 E13.48793
G1 X63.396 Y27.475 E13.50695
G1 X64.769 Y28.363 E13.53771
G1 X65.634 Y28.975 E13.55764
G1 X66.619 Y29.741 E13.58111
G1 X67.872 Y30.838 E13.61244
